static/img/kroki/cd992c07bf0359190f3fa0e9f973f674.svg

<?xml version="1.0" encoding="us-ascii" standalone="no"?><svg xmlns="http://www.w3.org/2000/svg" xmlns:xlink="http://www.w3.org/1999/xlink" contentStyleType="text/css" height="1190px" preserveAspectRatio="none" style="width:377px;height:1190px;" version="1.1" viewBox="0 0 377 1190" width="377px" zoomAndPan="magnify"><defs/><g><!--class azure_metric_alert--><g id="elem_azure_metric_alert"><rect codeLine="23" fill="#3D176E" height="363.3516" id="azure_metric_alert" rx="2.5" ry="2.5" style="stroke:#000D19;stroke-width:0.5;" width="316" x="30.5" y="660.15"/><ellipse cx="100.75" cy="680.0445" fill="#ADD1B2" rx="11" ry="11" style="stroke:#181818;stroke-width:1.0;"/><path d="M103.7188,685.6852 Q103.1406,685.982 102.5,686.1227 Q101.8594,686.2789 101.1563,686.2789 Q98.6563,686.2789 97.3281,684.6383 Q96.0156,682.982 96.0156,679.857 Q96.0156,676.732 97.3281,675.0758 Q98.6563,673.4195 101.1563,673.4195 Q101.8594,673.4195 102.5,673.5758 Q103.1563,673.732 103.7188,674.0289 L103.7188,676.7477 Q103.0938,676.1695 102.5,675.9039 Q101.9063,675.6227 101.2813,675.6227 Q99.9375,675.6227 99.25,676.7008 Q98.5625,677.7633 98.5625,679.857 Q98.5625,681.9508 99.25,683.0289 Q99.9375,684.0914 101.2813,684.0914 Q101.9063,684.0914 102.5,683.8258 Q103.0938,683.5445 103.7188,682.9664 L103.7188,685.6852 Z " fill="#000000"/><text fill="#D9B8FF" font-family="Helvetica" font-size="17" lengthAdjust="spacing" textLength="157" x="126.25" y="685.9298">azure_metric_alert</text><line style="stroke:#000D19;stroke-width:0.5;" x1="31.5" x2="345.5" y1="699.9391" y2="699.9391"/><text fill="#D9B8FF" font-family="sans-serif" font-size="14" font-weight="bold" lengthAdjust="spacing" textLength="100" x="41.5" y="721.9342">alert_actions</text><text fill="#D9B8FF" font-family="sans-serif" font-size="14" lengthAdjust="spacing" textLength="194" x="141.5" y="721.9342">: azure_metric_alert_action[]</text><text fill="#D9B8FF" font-family="sans-serif" font-size="14" font-weight="bold" lengthAdjust="spacing" textLength="105" x="41.5" y="748.2311">auto_mitigate</text><text fill="#D9B8FF" font-family="sans-serif" font-size="14" lengthAdjust="spacing" textLength="65" x="146.5" y="748.2311">: boolean</text><text fill="#D9B8FF" font-family="sans-serif" font-size="14" font-weight="bold" lengthAdjust="spacing" textLength="89" x="41.5" y="774.5279">description</text><text fill="#D9B8FF" font-family="sans-serif" font-size="14" lengthAdjust="spacing" textLength="48" x="130.5" y="774.5279">: string</text><text fill="#D9B8FF" font-family="sans-serif" font-size="14" font-weight="bold" lengthAdjust="spacing" textLength="63" x="41.5" y="800.8248">enabled</text><text fill="#D9B8FF" font-family="sans-serif" font-size="14" lengthAdjust="spacing" textLength="65" x="104.5" y="800.8248">: boolean</text><text fill="#D9B8FF" font-family="sans-serif" font-size="14" font-weight="bold" lengthAdjust="spacing" textLength="169" x="41.5" y="827.1217">evaluation_frequency</text><text fill="#D9B8FF" font-family="sans-serif" font-size="14" lengthAdjust="spacing" textLength="48" x="210.5" y="827.1217">: string</text><text fill="#D9B8FF" font-family="sans-serif" font-size="14" font-weight="bold" lengthAdjust="spacing" textLength="90" x="41.5" y="853.4186">is_migrated</text><text fill="#D9B8FF" font-family="sans-serif" font-size="14" lengthAdjust="spacing" textLength="65" x="131.5" y="853.4186">: boolean</text><text fill="#D9B8FF" font-family="sans-serif" font-size="14" font-weight="bold" lengthAdjust="spacing" textLength="141" x="41.5" y="879.7154">last_updated_time</text><text fill="#D9B8FF" font-family="sans-serif" font-size="14" lengthAdjust="spacing" textLength="70" x="182.5" y="879.7154">: datetime</text><text fill="#D9B8FF" font-family="sans-serif" font-size="14" font-weight="bold" lengthAdjust="spacing" textLength="57" x="41.5" y="906.0123">scopes</text><text fill="#D9B8FF" font-family="sans-serif" font-size="14" lengthAdjust="spacing" textLength="58" x="98.5" y="906.0123">: string[]</text><text fill="#D9B8FF" font-family="sans-serif" font-size="14" font-weight="bold" lengthAdjust="spacing" textLength="64" x="41.5" y="932.3092">severity</text><text fill="#D9B8FF" font-family="sans-serif" font-size="14" lengthAdjust="spacing" textLength="44" x="105.5" y="932.3092">: int64</text><text fill="#D9B8FF" font-family="sans-serif" font-size="14" font-weight="bold" lengthAdjust="spacing" textLength="185" x="41.5" y="958.6061">target_resource_region</text><text fill="#D9B8FF" font-family="sans-serif" font-size="14" lengthAdjust="spacing" textLength="48" x="226.5" y="958.6061">: string</text><text fill="#D9B8FF" font-family="sans-serif" font-size="14" font-weight="bold" lengthAdjust="spacing" textLength="169" x="41.5" y="984.9029">target_resource_type</text><text fill="#D9B8FF" font-family="sans-serif" font-size="14" lengthAdjust="spacing" textLength="48" x="210.5" y="984.9029">: string</text><text fill="#D9B8FF" font-family="sans-serif" font-size="14" font-weight="bold" lengthAdjust="spacing" textLength="101" x="41.5" y="1011.1998">window_size</text><text fill="#D9B8FF" font-family="sans-serif" font-size="14" lengthAdjust="spacing" textLength="48" x="142.5" y="1011.1998">: string</text></g><!--class azure_metric_alert_action--><g id="elem_azure_metric_alert_action"><rect codeLine="37" fill="#3D176E" height="100.3828" id="azure_metric_alert_action" rx="2.5" ry="2.5" style="stroke:#000D19;stroke-width:0.5;" width="363" x="7" y="1083.5"/><ellipse cx="70.75" cy="1103.3945" fill="#ADD1B2" rx="11" ry="11" style="stroke:#181818;stroke-width:1.0;"/><path d="M73.7188,1109.0352 Q73.1406,1109.332 72.5,1109.4727 Q71.8594,1109.6289 71.1563,1109.6289 Q68.6563,1109.6289 67.3281,1107.9883 Q66.0156,1106.332 66.0156,1103.207 Q66.0156,1100.082 67.3281,1098.4258 Q68.6563,1096.7695 71.1563,1096.7695 Q71.8594,1096.7695 72.5,1096.9258 Q73.1563,1097.082 73.7188,1097.3789 L73.7188,1100.0977 Q73.0938,1099.5195 72.5,1099.2539 Q71.9063,1098.9727 71.2813,1098.9727 Q69.9375,1098.9727 69.25,1100.0508 Q68.5625,1101.1133 68.5625,1103.207 Q68.5625,1105.3008 69.25,1106.3789 Q69.9375,1107.4414 71.2813,1107.4414 Q71.9063,1107.4414 72.5,1107.1758 Q73.0938,1106.8945 73.7188,1106.3164 L73.7188,1109.0352 Z " fill="#000000"/><text fill="#D9B8FF" font-family="Helvetica" font-size="17" lengthAdjust="spacing" textLength="217" x="96.25" y="1109.2798">azure_metric_alert_action</text><line style="stroke:#000D19;stroke-width:0.5;" x1="8" x2="369" y1="1123.2891" y2="1123.2891"/><text fill="#D9B8FF" font-family="sans-serif" font-size="14" font-weight="bold" lengthAdjust="spacing" textLength="123" x="18" y="1145.2842">action_group_id</text><text fill="#D9B8FF" font-family="sans-serif" font-size="14" lengthAdjust="spacing" textLength="48" x="141" y="1145.2842">: string</text><text fill="#D9B8FF" font-family="sans-serif" font-size="14" font-weight="bold" lengthAdjust="spacing" textLength="170" x="18" y="1171.5811">web_hook_properties</text><text fill="#D9B8FF" font-family="sans-serif" font-size="14" lengthAdjust="spacing" textLength="171" x="188" y="1171.5811">: dictionary[string, string]</text></g><!--class microsoft_resource--><g id="elem_microsoft_resource"><rect codeLine="41" fill="#3D176E" height="100.3828" id="microsoft_resource" rx="2.5" ry="2.5" style="stroke:#000D19;stroke-width:0.5;" width="214" x="81.5" y="438.76"/><ellipse cx="102.8" cy="458.6545" fill="#ADD1B2" rx="11" ry="11" style="stroke:#181818;stroke-width:1.0;"/><path d="M105.7688,464.2952 Q105.1906,464.592 104.55,464.7327 Q103.9094,464.8889 103.2063,464.8889 Q100.7063,464.8889 99.3781,463.2483 Q98.0656,461.592 98.0656,458.467 Q98.0656,455.342 99.3781,453.6858 Q100.7063,452.0295 103.2063,452.0295 Q103.9094,452.0295 104.55,452.1858 Q105.2063,452.342 105.7688,452.6389 L105.7688,455.3577 Q105.1438,454.7795 104.55,454.5139 Q103.9563,454.2327 103.3313,454.2327 Q101.9875,454.2327 101.3,455.3108 Q100.6125,456.3733 100.6125,458.467 Q100.6125,460.5608 101.3,461.6389 Q101.9875,462.7014 103.3313,462.7014 Q103.9563,462.7014 104.55,462.4358 Q105.1438,462.1545 105.7688,461.5764 L105.7688,464.2952 Z " fill="#000000"/><text fill="#D9B8FF" font-family="Helvetica" font-size="17" lengthAdjust="spacing" textLength="158" x="123.2" y="464.5398">microsoft_resource</text><line style="stroke:#000D19;stroke-width:0.5;" x1="82.5" x2="294.5" y1="478.5491" y2="478.5491"/><text fill="#D9B8FF" font-family="sans-serif" font-size="14" font-weight="bold" lengthAdjust="spacing" textLength="35" x="92.5" y="500.5442">etag</text><text fill="#D9B8FF" font-family="sans-serif" font-size="14" lengthAdjust="spacing" textLength="48" x="127.5" y="500.5442">: string</text><text fill="#D9B8FF" font-family="sans-serif" font-size="14" font-weight="bold" lengthAdjust="spacing" textLength="144" x="92.5" y="526.8411">provisioning_state</text><text fill="#D9B8FF" font-family="sans-serif" font-size="14" lengthAdjust="spacing" textLength="48" x="236.5" y="526.8411">: string</text></g><!--class resource--><g id="elem_resource"><rect codeLine="45" fill="#3D176E" height="310.7578" id="resource" rx="2.5" ry="2.5" style="stroke:#000D19;stroke-width:0.5;" width="227" x="75" y="7"/><ellipse cx="143.75" cy="26.8945" fill="#ADD1B2" rx="11" ry="11" style="stroke:#181818;stroke-width:1.0;"/><path d="M146.7188,32.5352 Q146.1406,32.832 145.5,32.9727 Q144.8594,33.1289 144.1563,33.1289 Q141.6563,33.1289 140.3281,31.4883 Q139.0156,29.832 139.0156,26.707 Q139.0156,23.582 140.3281,21.9258 Q141.6563,20.2695 144.1563,20.2695 Q144.8594,20.2695 145.5,20.4258 Q146.1563,20.582 146.7188,20.8789 L146.7188,23.5977 Q146.0938,23.0195 145.5,22.7539 Q144.9063,22.4727 144.2813,22.4727 Q142.9375,22.4727 142.25,23.5508 Q141.5625,24.6133 141.5625,26.707 Q141.5625,28.8008 142.25,29.8789 Q142.9375,30.9414 144.2813,30.9414 Q144.9063,30.9414 145.5,30.6758 Q146.0938,30.3945 146.7188,29.8164 L146.7188,32.5352 Z " fill="#000000"/><text fill="#D9B8FF" font-family="Helvetica" font-size="17" lengthAdjust="spacing" textLength="71" x="169.25" y="32.7798">resource</text><line style="stroke:#000D19;stroke-width:0.5;" x1="76" x2="301" y1="46.7891" y2="46.7891"/><text fill="#D9B8FF" font-family="sans-serif" font-size="14" font-weight="bold" lengthAdjust="spacing" textLength="29" x="86" y="68.7842">age</text><text fill="#D9B8FF" font-family="sans-serif" font-size="14" lengthAdjust="spacing" textLength="66" x="115" y="68.7842">: duration</text><text fill="#D9B8FF" font-family="sans-serif" font-size="14" font-weight="bold" lengthAdjust="spacing" textLength="43" x="86" y="95.0811">atime</text><text fill="#D9B8FF" font-family="sans-serif" font-size="14" lengthAdjust="spacing" textLength="70" x="129" y="95.0811">: datetime</text><text fill="#D9B8FF" font-family="sans-serif" font-size="14" font-weight="bold" lengthAdjust="spacing" textLength="43" x="86" y="121.3779">ctime</text><text fill="#D9B8FF" font-family="sans-serif" font-size="14" lengthAdjust="spacing" textLength="70" x="129" y="121.3779">: datetime</text><text fill="#D9B8FF" font-family="sans-serif" font-size="14" font-weight="bold" lengthAdjust="spacing" textLength="14" x="86" y="147.6748">id</text><text fill="#D9B8FF" font-family="sans-serif" font-size="14" lengthAdjust="spacing" textLength="48" x="100" y="147.6748">: string</text><text fill="#D9B8FF" font-family="sans-serif" font-size="14" font-weight="bold" lengthAdjust="spacing" textLength="33" x="86" y="173.9717">kind</text><text fill="#D9B8FF" font-family="sans-serif" font-size="14" lengthAdjust="spacing" textLength="48" x="119" y="173.9717">: string</text><text fill="#D9B8FF" font-family="sans-serif" font-size="14" font-weight="bold" lengthAdjust="spacing" textLength="90" x="86" y="200.2686">last_access</text><text fill="#D9B8FF" font-family="sans-serif" font-size="14" lengthAdjust="spacing" textLength="66" x="176" y="200.2686">: duration</text><text fill="#D9B8FF" font-family="sans-serif" font-size="14" font-weight="bold" lengthAdjust="spacing" textLength="90" x="86" y="226.5654">last_update</text><text fill="#D9B8FF" font-family="sans-serif" font-size="14" lengthAdjust="spacing" textLength="66" x="176" y="226.5654">: duration</text><text fill="#D9B8FF" font-family="sans-serif" font-size="14" font-weight="bold" lengthAdjust="spacing" textLength="48" x="86" y="252.8623">mtime</text><text fill="#D9B8FF" font-family="sans-serif" font-size="14" lengthAdjust="spacing" textLength="70" x="134" y="252.8623">: datetime</text><text fill="#D9B8FF" font-family="sans-serif" font-size="14" font-weight="bold" lengthAdjust="spacing" textLength="43" x="86" y="279.1592">name</text><text fill="#D9B8FF" font-family="sans-serif" font-size="14" lengthAdjust="spacing" textLength="48" x="129" y="279.1592">: string</text><text fill="#D9B8FF" font-family="sans-serif" font-size="14" font-weight="bold" lengthAdjust="spacing" textLength="34" x="86" y="305.4561">tags</text><text fill="#D9B8FF" font-family="sans-serif" font-size="14" lengthAdjust="spacing" textLength="171" x="120" y="305.4561">: dictionary[string, string]</text></g><!--link azure_metric_alert to azure_metric_alert_action--><g id="link_azure_metric_alert_azure_metric_alert_action"><path codeLine="57" d="M188.5,1023.93 C188.5,1045.44 188.5,1059.82 188.5,1077 " fill="none" id="azure_metric_alert-to-azure_metric_alert_action" style="stroke:#FFAF37;stroke-width:2.0;"/><polygon fill="#FFAF37" points="188.5,1083,192.5,1074,188.5,1078,184.5,1074,188.5,1083" style="stroke:#FFAF37;stroke-width:2.0;"/></g><!--reverse link microsoft_resource to azure_metric_alert--><g id="link_microsoft_resource_azure_metric_alert"><path codeLine="58" d="M188.5,557.48 C188.5,589.5 188.5,615.34 188.5,659.68 " fill="none" id="microsoft_resource-backto-azure_metric_alert" style="stroke:#FFAF37;stroke-width:2.0;"/><polygon fill="none" points="188.5,539.48,182.5,557.48,194.5,557.48,188.5,539.48" style="stroke:#FFAF37;stroke-width:2.0;"/></g><!--reverse link resource to microsoft_resource--><g id="link_resource_microsoft_resource"><path codeLine="59" d="M188.5,336.06 C188.5,379.66 188.5,405.99 188.5,438.43 " fill="none" id="resource-backto-microsoft_resource" style="stroke:#FFAF37;stroke-width:2.0;"/><polygon fill="none" points="188.5,318.06,182.5,336.06,194.5,336.06,188.5,318.06" style="stroke:#FFAF37;stroke-width:2.0;"/></g><!--SRC=[XPJVRzCm4CVVyrT4sbj5fPR1kYA4D2eXU9aGussQh8jzIQqcTZXVEdN0_uwTb2rnqlNDlllSVU-7awrMc69Lyo6jiCgGNE9ssjH0KAKtHFPnOqjBwKMUGtwvYfrVhE6pm2rKc7x5Se-i9SJ4pwsMEuFEfMzxhiyWTmNPngWkFHCOvrrek4TjId3kXfbqrZ3sYb7hx3hFOp9EUd6fbgih766M5D8HMImMQhcEaRDIh_RzJDpf9qoN_Q7TMiPHcIE9bdgroa3qYXmr-jz_iiRle9GsHVg-P_lHrKG6QM2_suAoZu7EeNHz6ST8QFbGusRK5QwlLRwQXB-TWXCPHfV2KqCeAlIBbm9A94v_9xDPUn8WMLlZPhCF4zpHU_yGy8Qjg3Jh0XW3dbbR8XZlKkWawJgWmU5y0bDuEnh8IbH36FTGDX1OaHF-Qj38mo1AEozJa5U98dqpB9fQ1OzWNRLLX5iuUx-JjaRtagijs-4UINCheGrVlVCs1YgG1Q6p3KdqXo8kFKR2d0U0Nw3Ved3-JVRiVq-E_3ZARlBjKOILrKAhOLxCnDRQdQZ9TqEikuwKRcE03lST-kOOyl2iMMb9rjdyfUfM31cAWO9FlDVE9_DNuVYupQY1GGeekb4trEujM2R6BoTiKNF-yGuDxKf1Ilz3YnHwouuyrOIEWGgZ_HNdvpRnOSpddqulBvaOySS_y_by8YI9Y75eyWy0]--></g></svg>

<svg xmlns="http://www.w3.org/2000/svg" width="377" height="1190" viewBox="0 0 377 1190"><rect width="316" height="363.352" x="30.5" y="660.15" fill="#3D176E" rx="2.5" ry="2.5" style="stroke:#000d19;stroke-width:.5"/><circle cx="100.75" cy="680.044" r="11" fill="#ADD1B2" style="stroke:#181818;stroke-width:1"/><path d="M103.719 685.685q-.578.297-1.219.438-.64.156-1.344.156-2.5 0-3.828-1.64-1.312-1.657-1.312-4.782t1.312-4.781q1.328-1.657 3.828-1.657.703 0 1.344.157.656.156 1.219.453v2.719q-.625-.579-1.219-.844-.594-.281-1.219-.281-1.344 0-2.031 1.078-.687 1.062-.687 3.156t.687 3.172q.688 1.062 2.031 1.062.625 0 1.219-.265.594-.282 1.219-.86z"/><text x="126.25" y="685.93" fill="#D9B8FF" font-family="Helvetica" font-size="17" textLength="157">azure_metric_alert</text><path d="M31.5 699.939h314" style="stroke:#000d19;stroke-width:.5"/><text x="41.5" y="721.934" fill="#D9B8FF" font-family="sans-serif" font-size="14" font-weight="bold" textLength="100">alert_actions</text><text x="141.5" y="721.934" fill="#D9B8FF" font-family="sans-serif" font-size="14" textLength="194">: azure_metric_alert_action[]</text><text x="41.5" y="748.231" fill="#D9B8FF" font-family="sans-serif" font-size="14" font-weight="bold" textLength="105">auto_mitigate</text><text x="146.5" y="748.231" fill="#D9B8FF" font-family="sans-serif" font-size="14" textLength="65">: boolean</text><text x="41.5" y="774.528" fill="#D9B8FF" font-family="sans-serif" font-size="14" font-weight="bold" textLength="89">description</text><text x="130.5" y="774.528" fill="#D9B8FF" font-family="sans-serif" font-size="14" textLength="48">: string</text><text x="41.5" y="800.825" fill="#D9B8FF" font-family="sans-serif" font-size="14" font-weight="bold" textLength="63">enabled</text><text x="104.5" y="800.825" fill="#D9B8FF" font-family="sans-serif" font-size="14" textLength="65">: boolean</text><text x="41.5" y="827.122" fill="#D9B8FF" font-family="sans-serif" font-size="14" font-weight="bold" textLength="169">evaluation_frequency</text><text x="210.5" y="827.122" fill="#D9B8FF" font-family="sans-serif" font-size="14" textLength="48">: string</text><text x="41.5" y="853.419" fill="#D9B8FF" font-family="sans-serif" font-size="14" font-weight="bold" textLength="90">is_migrated</text><text x="131.5" y="853.419" fill="#D9B8FF" font-family="sans-serif" font-size="14" textLength="65">: boolean</text><text x="41.5" y="879.715" fill="#D9B8FF" font-family="sans-serif" font-size="14" font-weight="bold" textLength="141">last_updated_time</text><text x="182.5" y="879.715" fill="#D9B8FF" font-family="sans-serif" font-size="14" textLength="70">: datetime</text><text x="41.5" y="906.012" fill="#D9B8FF" font-family="sans-serif" font-size="14" font-weight="bold" textLength="57">scopes</text><text x="98.5" y="906.012" fill="#D9B8FF" font-family="sans-serif" font-size="14" textLength="58">: string[]</text><text x="41.5" y="932.309" fill="#D9B8FF" font-family="sans-serif" font-size="14" font-weight="bold" textLength="64">severity</text><text x="105.5" y="932.309" fill="#D9B8FF" font-family="sans-serif" font-size="14" textLength="44">: int64</text><text x="41.5" y="958.606" fill="#D9B8FF" font-family="sans-serif" font-size="14" font-weight="bold" textLength="185">target_resource_region</text><text x="226.5" y="958.606" fill="#D9B8FF" font-family="sans-serif" font-size="14" textLength="48">: string</text><text x="41.5" y="984.903" fill="#D9B8FF" font-family="sans-serif" font-size="14" font-weight="bold" textLength="169">target_resource_type</text><text x="210.5" y="984.903" fill="#D9B8FF" font-family="sans-serif" font-size="14" textLength="48">: string</text><text x="41.5" y="1011.2" fill="#D9B8FF" font-family="sans-serif" font-size="14" font-weight="bold" textLength="101">window_size</text><text x="142.5" y="1011.2" fill="#D9B8FF" font-family="sans-serif" font-size="14" textLength="48">: string</text><rect width="363" height="100.383" x="7" y="1083.5" fill="#3D176E" rx="2.5" ry="2.5" style="stroke:#000d19;stroke-width:.5"/><circle cx="70.75" cy="1103.395" r="11" fill="#ADD1B2" style="stroke:#181818;stroke-width:1"/><path d="M73.719 1109.035q-.578.297-1.219.438-.64.156-1.344.156-2.5 0-3.828-1.64-1.312-1.657-1.312-4.782t1.312-4.781q1.328-1.656 3.828-1.656.703 0 1.344.156.656.156 1.219.453v2.719q-.625-.578-1.219-.844-.594-.281-1.219-.281-1.344 0-2.031 1.078-.687 1.062-.687 3.156t.687 3.172q.688 1.062 2.031 1.062.625 0 1.219-.265.594-.281 1.219-.86z"/><text x="96.25" y="1109.28" fill="#D9B8FF" font-family="Helvetica" font-size="17" textLength="217">azure_metric_alert_action</text><path d="M8 1123.289h361" style="stroke:#000d19;stroke-width:.5"/><text x="18" y="1145.284" fill="#D9B8FF" font-family="sans-serif" font-size="14" font-weight="bold" textLength="123">action_group_id</text><text x="141" y="1145.284" fill="#D9B8FF" font-family="sans-serif" font-size="14" textLength="48">: string</text><text x="18" y="1171.581" fill="#D9B8FF" font-family="sans-serif" font-size="14" font-weight="bold" textLength="170">web_hook_properties</text><text x="188" y="1171.581" fill="#D9B8FF" font-family="sans-serif" font-size="14" textLength="171">: dictionary[string, string]</text><rect width="214" height="100.383" x="81.5" y="438.76" fill="#3D176E" rx="2.5" ry="2.5" style="stroke:#000d19;stroke-width:.5"/><circle cx="102.8" cy="458.654" r="11" fill="#ADD1B2" style="stroke:#181818;stroke-width:1"/><path d="M105.769 464.295q-.578.297-1.219.438-.64.156-1.344.156-2.5 0-3.828-1.64-1.312-1.657-1.312-4.782t1.312-4.781q1.328-1.656 3.828-1.656.703 0 1.344.156.656.156 1.219.453v2.719q-.625-.579-1.219-.844-.594-.281-1.219-.281-1.344 0-2.031 1.078-.687 1.062-.687 3.156t.687 3.172q.688 1.062 2.031 1.062.625 0 1.219-.265.594-.281 1.219-.86z"/><text x="123.2" y="464.54" fill="#D9B8FF" font-family="Helvetica" font-size="17" textLength="158">microsoft_resource</text><path d="M82.5 478.549h212" style="stroke:#000d19;stroke-width:.5"/><text x="92.5" y="500.544" fill="#D9B8FF" font-family="sans-serif" font-size="14" font-weight="bold" textLength="35">etag</text><text x="127.5" y="500.544" fill="#D9B8FF" font-family="sans-serif" font-size="14" textLength="48">: string</text><text x="92.5" y="526.841" fill="#D9B8FF" font-family="sans-serif" font-size="14" font-weight="bold" textLength="144">provisioning_state</text><text x="236.5" y="526.841" fill="#D9B8FF" font-family="sans-serif" font-size="14" textLength="48">: string</text><rect width="227" height="310.758" x="75" y="7" fill="#3D176E" rx="2.5" ry="2.5" style="stroke:#000d19;stroke-width:.5"/><circle cx="143.75" cy="26.895" r="11" fill="#ADD1B2" style="stroke:#181818;stroke-width:1"/><path d="M146.719 32.535q-.578.297-1.219.438-.64.156-1.344.156-2.5 0-3.828-1.64-1.312-1.657-1.312-4.782t1.312-4.781q1.328-1.656 3.828-1.656.703 0 1.344.156.656.156 1.219.453v2.719q-.625-.578-1.219-.844-.594-.281-1.219-.281-1.344 0-2.031 1.078-.687 1.062-.687 3.156t.687 3.172q.688 1.062 2.031 1.062.625 0 1.219-.265.594-.281 1.219-.86z"/><text x="169.25" y="32.78" fill="#D9B8FF" font-family="Helvetica" font-size="17" textLength="71">resource</text><path d="M76 46.789h225" style="stroke:#000d19;stroke-width:.5"/><text x="86" y="68.784" fill="#D9B8FF" font-family="sans-serif" font-size="14" font-weight="bold" textLength="29">age</text><text x="115" y="68.784" fill="#D9B8FF" font-family="sans-serif" font-size="14" textLength="66">: duration</text><text x="86" y="95.081" fill="#D9B8FF" font-family="sans-serif" font-size="14" font-weight="bold" textLength="43">atime</text><text x="129" y="95.081" fill="#D9B8FF" font-family="sans-serif" font-size="14" textLength="70">: datetime</text><text x="86" y="121.378" fill="#D9B8FF" font-family="sans-serif" font-size="14" font-weight="bold" textLength="43">ctime</text><text x="129" y="121.378" fill="#D9B8FF" font-family="sans-serif" font-size="14" textLength="70">: datetime</text><text x="86" y="147.675" fill="#D9B8FF" font-family="sans-serif" font-size="14" font-weight="bold" textLength="14">id</text><text x="100" y="147.675" fill="#D9B8FF" font-family="sans-serif" font-size="14" textLength="48">: string</text><text x="86" y="173.972" fill="#D9B8FF" font-family="sans-serif" font-size="14" font-weight="bold" textLength="33">kind</text><text x="119" y="173.972" fill="#D9B8FF" font-family="sans-serif" font-size="14" textLength="48">: string</text><text x="86" y="200.269" fill="#D9B8FF" font-family="sans-serif" font-size="14" font-weight="bold" textLength="90">last_access</text><text x="176" y="200.269" fill="#D9B8FF" font-family="sans-serif" font-size="14" textLength="66">: duration</text><text x="86" y="226.565" fill="#D9B8FF" font-family="sans-serif" font-size="14" font-weight="bold" textLength="90">last_update</text><text x="176" y="226.565" fill="#D9B8FF" font-family="sans-serif" font-size="14" textLength="66">: duration</text><text x="86" y="252.862" fill="#D9B8FF" font-family="sans-serif" font-size="14" font-weight="bold" textLength="48">mtime</text><text x="134" y="252.862" fill="#D9B8FF" font-family="sans-serif" font-size="14" textLength="70">: datetime</text><text x="86" y="279.159" fill="#D9B8FF" font-family="sans-serif" font-size="14" font-weight="bold" textLength="43">name</text><text x="129" y="279.159" fill="#D9B8FF" font-family="sans-serif" font-size="14" textLength="48">: string</text><text x="86" y="305.456" fill="#D9B8FF" font-family="sans-serif" font-size="14" font-weight="bold" textLength="34">tags</text><text x="120" y="305.456" fill="#D9B8FF" font-family="sans-serif" font-size="14" textLength="171">: dictionary[string, string]</text><path fill="none" d="M188.5 1023.93V1077" style="stroke:#ffaf37;stroke-width:2"/><path fill="#FFAF37" d="m188.5 1083 4-9-4 4-4-4z" style="stroke:#ffaf37;stroke-width:2"/><path fill="none" d="M188.5 557.48v102.2m0-120.2-6 18h12zm0-203.42v102.37m0-120.37-6 18h12z" style="stroke:#ffaf37;stroke-width:2"/></svg>
